X:1
T:Evening (Showalter), CM
T:Evening (Showalter), CM
T:Anthony Johnson Showalter, 1883
T:Public Domain Courtesy of the Cyber Hymnal™
C:Anthony Johnson Showalter, 1883
Z:Public Domain
Z:Courtesy of the Cyber Hymnal™
%%score 1 ( 2 3 )
L:1/8
Q:1/4=125
M:3/4
K:C
V:1 treble 
V:2 bass 
V:3 bass 
V:1
 ([CE][DF]) | [EG]4 [EG]2 | [EG]4 [Gc]2 | [Ge]4 [Fd]2 | [Ec]4 [EG]2 | [FA]4 [Ac]2 | [Ac]4 [FA]2 | %7
 [EG]4 ([CE][DF]) | [EG]4 [EG]2 | [EG]4 [Gc]2 | [Ge]4 [Fd]2 | [Ec]4 [EG]2 | [FA]4 [Fc]2 | %13
 ([DB]2 [Ec]2) [Fd]2 | [Ec]4 |] %15
V:2
 [C,G,]2 | [C,C]4 [C,C]2 | [C,C]4 [E,C]2 | [G,C]4 [G,B,]2 | [C,C]4 [C,C]2 | [F,C]4 [F,C]2 | %6
 [F,C]4 [F,C]2 | [C,C]4 [C,G,]2 | [C,C]4 [C,C]2 | [C,C]4 [E,C]2 | [G,C]4 [G,C]2 | [C,C]4 [C,C]2 | %12
 [F,C]4 [F,A,]2 | G,4 [G,,G,]2 | [C,G,]4 |] %15
V:3
 x2 | x6 | x6 | x6 | x6 | x6 | x6 | x6 | x6 | x6 | x6 | x6 | x6 | G,4 x2 | x4 |] %15

